teeny/outline/unlock.svg

<svg width="15" height="15" viewBox="0 0 15 15" fill="none" xmlns="http://www.w3.org/2000/svg">
<path d="M4.5 6.5V3.5C4.5 1.84315 5.84315 0.5 7.5 0.5C9.15685 0.5 10.5 1.84315 10.5 3.5V4M2.5 6.5H12.5C13.0523 6.5 13.5 6.94772 13.5 7.5V13.5C13.5 14.0523 13.0523 14.5 12.5 14.5H2.5C1.94772 14.5 1.5 14.0523 1.5 13.5V7.5C1.5 6.94772 1.94772 6.5 2.5 6.5Z" stroke="black"/>
</svg>

<svg viewBox="0 0 15 15" xmlns="http://www.w3.org/2000/svg"><path fill="none" stroke="#000" d="M4.5 6.5v-3c0-1.66 1.34-3 3-3 1.65 0 3 1.34 3 3V4m-8 2.5h10c.55 0 1 .44 1 1v6c0 .55-.45 1-1 1h-10c-.56 0-1-.45-1-1v-6c0-.56.44-1 1-1Z"/></svg>
